X: 1
T: Merry Hielander, The
M: 4/4
L: 1/8
R: reel
K: Dmaj
|:f2 af gfec|d/d/ddA fecf|ABcd e2ef|1 gfed e2de:|2 gfec d2B2|]
|:ecc/c/c Acc/c/c|fecf ecBc|Aaag afec|1 gfed e2Bd:|2 fedc d3|]
